src/images/logo.svg

<svg width="232" height="45" viewBox="0 0 232 45" fill="none" xmlns="http://www.w3.org/2000/svg">
<path d="M27.9654 25.3666H10.2687C10.4127 27.8467 12.1543 29.3276 14.8611 29.3276C16.8434 29.3276 18.1484 28.7547 18.6322 27.5625H27.8192C26.9484 32.5714 21.8723 35.7686 14.8611 35.7686C6.20739 35.7663 0.791504 31.2348 0.791504 23.1241C0.791504 15.1556 6.30414 10.3865 14.6676 10.3865C22.6463 10.3865 28.2062 15.109 28.2062 21.8852C28.2062 23.3151 28.1589 23.9812 27.9654 25.3666ZM18.729 20.2134C18.6795 17.6356 17.2304 16.0615 14.5709 16.0615C11.9608 16.0615 10.3632 17.78 10.2687 20.2134H18.729Z" fill="black"/>
<path d="M34.8776 22.9797L26.4151 11.2434H37.5349L40.919 17.3025L44.3031 11.2434H55.4228L46.9604 22.9797L55.5668 34.9559H44.4471L40.9167 28.6103L37.3864 34.9559H26.2666L34.8776 22.9797Z" fill="black"/>
<path d="M85.5982 23.1241C85.5982 30.5664 81.1025 35.6242 74.7191 35.6242C70.8985 35.6242 68.1917 33.5727 67.1769 31.4257V44.0212H57.6997V11.2434H67.1769V14.7737C68.2412 12.4823 71.0448 10.5751 74.8654 10.5751C81.1498 10.5751 85.5982 15.5374 85.5982 23.1241ZM75.7812 23.1241C75.7812 20.1667 73.9429 18.1152 71.2833 18.1152C68.6237 18.1152 66.7854 20.1667 66.7854 23.1241C66.7854 26.0815 68.6237 28.1819 71.2833 28.1819C73.8956 28.1796 75.7812 26.0815 75.7812 23.1241Z" fill="black"/>
<path d="M87.8682 5.32647C87.8682 2.51339 90.0935 0.222076 93.14 0.222076C96.1371 0.222076 98.4097 2.51339 98.4097 5.32647C98.4097 8.09292 96.1371 10.4309 93.14 10.4309C90.0935 10.4331 87.8682 8.09514 87.8682 5.32647ZM88.4014 11.2435H97.8787V34.9559H88.4014V11.2435Z" fill="black"/>
<path d="M102.425 11.2435H111.902V16.5388C112.773 12.8176 115.576 10.7661 118.816 10.7661C119.638 10.7661 120.025 10.815 120.605 10.9082V19.7338C119.687 19.5895 119.154 19.5428 118.189 19.5428C114.658 19.5428 111.904 21.0704 111.904 26.9852V34.9537H102.427V11.2435H102.425Z" fill="black"/>
<path d="M148.695 25.3666H130.998C131.142 27.8467 132.884 29.3276 135.591 29.3276C137.573 29.3276 138.878 28.7547 139.362 27.5625H148.549C147.678 32.5714 142.602 35.7686 135.591 35.7686C126.935 35.7686 121.521 31.237 121.521 23.1241C121.521 15.1556 127.034 10.3865 135.397 10.3865C143.376 10.3865 148.936 15.109 148.936 21.8852C148.936 23.3151 148.888 23.9812 148.695 25.3666ZM139.458 20.2134C139.409 17.6356 137.96 16.0615 135.3 16.0615C132.69 16.0615 131.093 17.78 130.998 20.2134H139.458Z" fill="black"/>
<path d="M151.449 11.2434H160.926V14.727C162.184 12.0072 164.891 10.5751 168.711 10.5751C174.611 10.5751 177.511 13.8678 177.511 20.4997V34.9559H167.84V22.8843C167.84 19.8314 166.826 18.3994 164.504 18.3994C162.134 18.3994 160.926 19.9269 160.926 23.0752V34.9559H151.449V11.2434Z" fill="black"/>
<path d="M189.936 18.8767H180.411V11.2434H203.715L193.367 27.3226H202.747V34.9559H179.25L189.936 18.8767Z" fill="black"/>
<path d="M203.569 23.1241C203.569 15.8238 207.874 10.5773 214.498 10.5773C218.222 10.5773 220.832 12.3424 221.943 14.7759V11.2456H231.468V34.9581H221.943V31.4279C220.879 33.8613 218.075 35.6264 214.448 35.6264C207.727 35.6242 203.569 30.3755 203.569 23.1241ZM222.378 23.1241C222.378 20.2621 220.686 18.1151 217.832 18.1151C215.126 18.1151 213.384 20.2155 213.384 23.1241C213.384 26.0348 215.126 28.0864 217.832 28.0864C220.686 28.0864 222.378 25.9371 222.378 23.1241Z" fill="black"/>
</svg>

<svg width="232" height="45" fill="none" xmlns="http://www.w3.org/2000/svg"><path d="M27.965 25.367H10.27c.144 2.48 1.885 3.96 4.592 3.96 1.982 0 3.287-.572 3.771-1.765h9.187c-.87 5.01-5.947 8.207-12.958 8.207C6.207 35.766.791 31.235.791 23.124c0-7.968 5.513-12.737 13.877-12.737 7.978 0 13.538 4.722 13.538 11.498 0 1.43-.047 2.096-.24 3.482zm-9.236-5.154c-.05-2.577-1.499-4.152-4.158-4.152-2.61 0-4.208 1.719-4.302 4.152h8.46z" fill="#000"/><path d="M34.878 22.98l-8.463-11.737h11.12l3.384 6.06 3.384-6.06h11.12L46.96 22.98l8.607 11.976h-11.12l-3.53-6.346-3.53 6.346h-11.12l8.61-11.976zm50.72.144c0 7.442-4.495 12.5-10.879 12.5-3.82 0-6.527-2.051-7.542-4.198V44.02H57.7V11.243h9.477v3.53c1.064-2.29 3.868-4.198 7.688-4.198 6.285 0 10.733 4.962 10.733 12.55zm-9.817 0c0-2.957-1.838-5.009-4.498-5.009s-4.498 2.052-4.498 5.01c0 2.956 1.839 5.057 4.498 5.057 2.613-.002 4.498-2.1 4.498-5.058zM87.868 5.326c0-2.813 2.226-5.104 5.272-5.104 2.997 0 5.27 2.291 5.27 5.104 0 2.767-2.273 5.105-5.27 5.105-3.046.002-5.272-2.336-5.272-5.105zm.533 5.917h9.478v23.713H88.4V11.243zm14.024 0h9.477v5.296c.871-3.721 3.674-5.773 6.914-5.773a9.51 9.51 0 0 1 1.789.142v8.826a13.295 13.295 0 0 0-2.416-.191c-3.531 0-6.285 1.527-6.285 7.442v7.969h-9.477v-23.71h-.002zm46.27 14.124h-17.697c.144 2.48 1.886 3.96 4.593 3.96 1.982 0 3.287-.572 3.771-1.765h9.187c-.871 5.01-5.947 8.207-12.958 8.207-8.656 0-14.07-4.532-14.07-12.645 0-7.968 5.513-12.737 13.876-12.737 7.979 0 13.539 4.722 13.539 11.498 0 1.43-.048 2.096-.241 3.482zm-9.237-5.154c-.049-2.577-1.498-4.152-4.158-4.152-2.61 0-4.207 1.719-4.302 4.152h8.46zm11.991-8.97h9.477v3.484c1.258-2.72 3.965-4.152 7.785-4.152 5.9 0 8.8 3.293 8.8 9.925v14.456h-9.671V22.884c0-3.053-1.014-4.485-3.336-4.485-2.37 0-3.578 1.528-3.578 4.676v11.88h-9.477V11.244zm38.487 7.634h-9.525v-7.634h23.304l-10.348 16.08h9.38v7.633H179.25l10.686-16.08zm13.633 4.247c0-7.3 4.305-12.547 10.929-12.547 3.724 0 6.334 1.765 7.445 4.199v-3.53h9.525v23.712h-9.525v-3.53c-1.064 2.433-3.868 4.198-7.495 4.198-6.721-.002-10.879-5.25-10.879-12.502zm18.809 0c0-2.862-1.692-5.009-4.546-5.009-2.706 0-4.448 2.1-4.448 5.01 0 2.91 1.742 4.961 4.448 4.961 2.854 0 4.546-2.149 4.546-4.962z" fill="#000"/></svg>
